X:1
T:James Gibb editions
T:Ihr Heiligen lobsinget dem Herren, SWV 288 - Schütz
T:#
%%score [ 1 2 ] 3
L:1/8
Q:1/4=100
M:none
K:G
V:1 treble nm="Soprano I"
V:2 treble nm="Soprano II"
V:3 bass nm="Continuo"
V:1
"^Ihr Heiligen lobsinget dem Herren, SWV 288""^Heinrich Schütz\n(1585-1672)""^Psalm 30: 4-6" A8 G6 G2 | %1
w: Ihr Hei- li-|
 F4 D4 (EDEF G4- | G4) F2 F2 E8 | F8 z8 | z16 | z8 z4 A4- | A4 D2 A2 B2 d2 c2 B2 | A6 A2 A8 | %8
w: gen lob- sin\- * * * *|* get dem Her-|ren,||dan\-|* ket und prei- set sei- ne|Herr- lich- keit,|
 z8 z4 A4- | A4 E2 A2 c2 e2 d2 c2 | B6 B2 B8 | E2 E2 A4 GFGFE>D D2 | z16 | A2 A2 d4 cBcBA>G G2 | %14
w: dan\-|* ket und prei- set sei- ne|Herr- lich- keit,|denn sein Zorn wäh- ret ei- nen Au- gen- blick,||denn sein Zorn wäh- ret ei- nen Au- gen- blick,|
 z2 A2 A2 A2 B4 A4 | (GE FG/A/ BcAB GAFG E3 ^C | ^D2 E4 D2) E8 | z16 | z16 | z8 z4 B4 | %20
w: und er hat Lust zum|Le\- * * * * * * * * * * * * * *|* * * ben.|||den|
 B4 B4 G4 c4 | c2 c2 (B6 A2 A4- | A2 ^GF G4) A8 | z16 | z16 | z8 z4 B4 | B4 B4 A4 d4 | %27
w: A- bend lang wäh-|ret das Wei\- * *|* * * * nen.|||den|A- bend lang wäh-|
 c2 c2 (B6 AG A4) | B16 | z2 B2 B2 F2 ^G4 A2 A2 | (^GFEF GA/B/ AG A4) B2 B2 | %31
w: ret das Wei\- * * *|nen,|a- ber des Mor- gens die|Freu\- * * * * * * * * * de, die|
 (^cBAB cd/e/ dc ^d2 e4 d2) | e2 B2 ^c4 d2 A2 B4 | c8 z8 | z4 z2 A2 B4 c2 c2 | %35
w: Freu\- * * * * * * * * * * *|de, des Mor- gens, des Mor-|gens,|des Mor- gens die|
 (BAGA B^c/d/ cB c2 d4 c2) | d8 z8 | z4 z2 E2 (FEDE F^G/A/ GF | ^G2 A4 G2) A4 z2 A2 | %39
w: Freu\- * * * * * * * * * * *|de,|die Freu\- * * * * * * * *|* * * de, die|
[Q:1/4=99] (B[Q:1/4=98]A[Q:1/4=97]G[Q:1/4=96]A[Q:1/4=95] B[Q:1/4=94]c/[Q:1/4=94]d/[Q:1/4=93] c[Q:1/4=92]B[Q:1/4=88] e8) | %40
w: Freu\- * * * * * * * * *|
[Q:1/4=85] d16 |] %41
w: de.|
V:2
 z16 | z16 | z16 | A8 G6 G2 | F4 D4 (EDEF G4- | G4) F2 F2 E8 | F8 z8 | z4 D8 A,2 D2 | %8
w: |||Ihr Hei- li-|gen lob- sin\- * * * *|* get dem Her-|ren,|dan- ket und|
 F2 A2 G2 F2 E6 E2 | E4 z2 E2 A2 c2 B2 A2 | ^G6 G2 G8 | z16 | F2 F2 B4 AGAGF>E E2 | %13
w: prei- set sei- ne Herr- lich-|keit, und prei- set sei- ne|Herr- lich- keit,||denn sein Zorn wäh- ret ei- nen Au- gen- blick,|
 z4 GFGF (E>F G2) F2 G2 | z2 F2 E2 F2 G4 F4 | (BcAB GAFG E3 B/A/ GFGE | F2 G2 F4) E8 | %17
w: wäh- ret ei- nen Au\- * * gen- blick,|und er hat Lust zum|Le\- * * * * * * * * * * * * * *|* * * ben.|
 z4 E4 E4 E4 | D4 G4 G2 G2 (F4- | F2 E2 E6 ^D^C D4) | E16 | z16 | z8 z2 A2 A2 E2 | %23
w: den A- bend|lang wäh- ret das Wei\-||nen,||a- ber des|
 F4 G2 G2 (FEDE FG/A/ GF | G4 A2 A2 (BAGA Bc/d/ cB | ^c2 d4 c2) d8- | d8 z8 | z4 E4 E4 E4 | %28
w: Mor- gens die Freu\- * * * * * * * *|* de, die Freu\- * * * * * * * *|* * * de,||den A- bend|
 D4 G4 F2 F2 E4- | E2 ^D^C D4) E8 | z16 | z8 z2 B2 B2 F2 | ^G4 A2 E2 F4 =G2 D2 | %33
w: lang wäh- ret das Wei\-|* * * * nen.||a- ber des|Mor- gens, des Mor- gens, die|
 E4 =F2 F2 (EDCD E^F/G/ FE | F2 G4 F2) G8 | z8 z4 z2 E2 | F4 G2 G2 (FEDE F^G/A/ GF | %37
w: Freu- de, die Freu\- * * * * * * * *|* * * de,|des|Mor- gens die Freu\- * * * * * * * *|
 ^G2 A4 G2) A8 | z4 z2 B2 (cBAB cd/e/ dc | d8- d2 ^cB c4) | d16 |] %41
w: * * * de,|die Freu\- * * * * * * * *||de.|
V:3
 D,8 E,8 | D,4 B,,4 A,,4 G,,4 | A,,16 | D,8 E,8 | D,4 B,,4 A,,4 G,,4 | A,,16 | D,8 G,,4 A,,2 B,,2 | %7
w: ||7~~~~~6|||7~~~~6||
w: ||~~~~~~~4|||~~~~~~4||
 D,6 D,2 D,8 | D,4 G,4 A,6 A,2 | A,4 A,,8 B,,2 A,,2 | E,6 E,2 E,8 | A,4 F,4 G,4 A,2 D,2 | %12
w: ||* * * 6||* 6 * * *|
w: |||||
 B,,4 ^G,,4 A,,4 B,,2 E,2 | D,4 B,,4 C,4 D,2 G,,2 | z2 D,2 ^C,2 D,2 G,4 D,4 | E,16 | B,,8 E,8 | %17
w: * 6 * * *|* 6 * * *|||~~~~~4 *|
w: |||||
 z4 C,4 C,4 C,4 | G,8 E,4 D,4 | C,8 B,,8 | E,,4 E,8 A,,4 | A,4 G,4 =F,8 | E,8 A,,4 A,,2 A,,2 | %23
w: ||* 4|||4 * * *|
w: ||||||
 D,4 G,,4 D,8 | E,4 F,4 G,8 | A,8 D,4 G,,4 | G,,4 G,,4 D,4 B,,4 | A,,4 G,,4 C,8 | %28
w: ||~~~~4 * *||* 6 7~~~~~~~~~~6|
w: |||||
 B,,4 E,4 ^D,4 E,4 | B,,8 E,4 A,,4 | E,8 F,4 G,4 | A,8 B,8 | E,4 A,4 D,4 G,4 | C,4 =F,4 C,6 E,2 | %34
w: |4 * *||* ~~~~4|||
w: ||||||
 D,8 G,,4 C,4 | G,6 B,2 A,8 | D,4 G,4 D,6 F,2 | E,8 D,6 F,2 | %38
w: 3~~4~~~~~~3 * *|* * ~~~~4||~~~~4 * *|
w: ||||
 E,8"^Kleine geistliche Konzerte. 1/7" A,,8 | G,,6 B,,2 A,,8 | D,16 |] %41
w: ~~~~~4~~~~~~~3 *|* * 4||
w: |||

